X:94
T:Old Joe Clark
C: Southern Trad.
R: reel
M: C|
L: 1/8
%% Q: 1/2=118
K: Amix
|: "A"e2f2 g2f2 | e2d2 c4 | e2f2 g2f2 | "E"e4 z4 | 
"A"e2f2 g2f2 | e2d2 c4 | A2c2 "G"B2G2 | "A"A4 z4 :|
|: "A"A3A A4 | e2d2 c4 | A3A A2A2 | "G"G4 z4 | 
"A"A3A A4 | e2d2 c4 | A2c2 "G"B2G2 | "A"A4 z4 :| 
%%text
%%text
